X:4
T:Colonel MacLeod
R:Reel
C:Traditional, Arr. STPB
M:4/4
K:D
L:1/8
[|: {d}c/2 | {g}e>f{gef}e>c {ag}a2 c>d | {g}e>f{gef}e>c {g}f>B{G}B>{d}c | {g}e>f{gef}e>c {ag}a2 e>d |1 {g}c<e {g}B>d {g}c>{d}A{e}A3/2 :|2 {g}c<e {g}B>d {g}c>{d}A{e}A>f |]
[|: {g}e<ag<a {fg}f2 {g}e>d | {g}c<ag<a {fg}f>B{G}B>f |1 {g}e<ag<a {fg}f2 {g}e>d | {g}c<e {g}B>d {g}c>{d}A{e}A>f :|2 {g}e<ag<a f<ae<a | c<aB<a c>{d}A{e}A>z |]